public/img/step-4.svg

<svg width="64" height="64" viewBox="0 0 64 64" fill="none" xmlns="http://www.w3.org/2000/svg">
<g clip-path="url(#clip0)">
<path d="M5.16119 56.7524H32V54.6874H5.16119C3.45097 54.6874 2.06442 53.3009 2.06442 51.5907V6.17129C2.06442 4.46055 3.45097 3.07452 5.16119 3.07452H50.5806C52.2916 3.07452 53.6773 4.46055 53.6773 6.17129V29.9131H55.7423V6.17129C55.7389 3.32213 53.43 1.01346 50.5806 1.0101H5.16119C2.31255 1.01346 0.00362225 3.32213 0 6.17129V51.5907C0.00362225 54.4398 2.31255 56.7485 5.16119 56.7524Z" fill="#2474B7" stroke="#2474B7" stroke-width="0.529883"/>
<path d="M4.12891 5.13947H6.19307V7.20363H4.12891V5.13947Z" fill="#2474B7" stroke="#2474B7" stroke-width="0.529883"/>
<path d="M8.25781 5.13947H10.3228V7.20363H8.25781V5.13947Z" fill="#2474B7" stroke="#2474B7" stroke-width="0.529883"/>
<path d="M12.3867 5.13947H14.4514V7.20363H12.3867V5.13947Z" fill="#2474B7" stroke="#2474B7" stroke-width="0.529883"/>
<path d="M4.12891 9.26804H51.6125V11.333H4.12891V9.26804Z" fill="#2474B7" stroke="#2474B7" stroke-width="0.529883"/>
<path d="M14.7556 13.6996L12.1336 16.3216C9.91729 14.8543 6.94937 15.3045 5.26736 17.363C3.5856 19.4212 3.73644 22.4194 5.61587 24.2986C7.49504 26.1785 10.4935 26.3294 12.552 24.6473C14.6102 22.9656 15.0606 19.9972 13.5931 17.7814L16.2148 15.1594L14.7556 13.6996ZM9.29142 23.7195C7.58146 23.7195 6.19491 22.3332 6.19491 20.623C6.19491 18.9125 7.58146 17.5265 9.29142 17.5265C9.75196 17.5281 10.205 17.6336 10.6182 17.8357L8.56205 19.8921L10.0213 21.3519L12.079 19.2968C12.2811 19.7097 12.3869 20.1627 12.3884 20.623C12.3884 22.3332 11.0024 23.7195 9.29142 23.7195Z" fill="#2474B7" stroke="#2474B7" stroke-width="0.529883"/>
<path d="M17.5488 17.5265H35.0968V19.5907H17.5488V17.5265Z" fill="#2474B7" stroke="#2474B7" stroke-width="0.529883"/>
<path d="M17.5488 21.6554H24.7744V23.7195H17.5488V21.6554Z" fill="#2474B7" stroke="#2474B7" stroke-width="0.529883"/>
<path d="M26.8379 21.6554H41.2891V23.7195H26.8379V21.6554Z" fill="#2474B7" stroke="#2474B7" stroke-width="0.529883"/>
<path d="M37.1621 17.5265H47.4848V19.5907H37.1621V17.5265Z" fill="#2474B7" stroke="#2474B7" stroke-width="0.529883"/>
<path d="M14.7556 26.0867L12.1336 28.7087C9.91729 27.2414 6.94937 27.6916 5.26736 29.7501C3.5856 31.8085 3.73644 34.8065 5.61587 36.6861C7.49504 38.5656 10.4935 38.7164 12.552 37.0344C14.6102 35.3524 15.0606 32.385 13.5931 30.1684L16.2148 27.5464L14.7556 26.0867ZM9.29142 36.1068C7.58146 36.1068 6.19491 34.7203 6.19491 33.0101C6.19491 31.2996 7.58146 29.9131 9.29142 29.9131C9.75196 29.9149 10.205 30.0207 10.6182 30.2228L8.56205 32.2797L10.0213 33.7389L12.079 31.6836C12.2811 32.0968 12.3869 32.5498 12.3884 33.0101C12.3884 34.7203 11.0024 36.1068 9.29142 36.1068Z" fill="#2474B7" stroke="#2474B7" stroke-width="0.529883"/>
<path d="M17.5488 29.9131H35.0968V31.9777H17.5488V29.9131Z" fill="#2474B7" stroke="#2474B7" stroke-width="0.529883"/>
<path d="M17.5488 34.0424H24.7744V36.1068H17.5488V34.0424Z" fill="#2474B7" stroke="#2474B7" stroke-width="0.529883"/>
<path d="M26.8379 34.0424H35.0956V36.1068H26.8379V34.0424Z" fill="#2474B7" stroke="#2474B7" stroke-width="0.529883"/>
<path d="M37.1621 29.9131H41.291V31.9777H37.1621V29.9131Z" fill="#2474B7" stroke="#2474B7" stroke-width="0.529883"/>
<path d="M14.7556 38.4737L12.1336 41.0957C9.91729 39.6284 6.94937 40.0786 5.26736 42.1371C3.5856 44.1956 3.73644 47.1935 5.61587 49.0732C7.49504 50.9529 10.4935 51.1032 12.552 49.4214C14.6102 47.7394 15.0606 44.7718 13.5931 42.5552L16.2148 39.9335L14.7556 38.4737ZM9.29142 48.4939C7.58146 48.4939 6.19491 47.1073 6.19491 45.3971C6.19491 43.6866 7.58146 42.3003 9.29142 42.3003C9.75196 42.3019 10.205 42.4075 10.6182 42.6098L8.56205 44.6667L10.0213 46.126L12.079 44.0706C12.2811 44.4838 12.3869 44.9371 12.3884 45.3971C12.3884 47.1073 11.0024 48.4939 9.29142 48.4939Z" fill="#2474B7" stroke="#2474B7" stroke-width="0.529883"/>
<path d="M17.5488 42.3004H30.968V44.3653H17.5488V42.3004Z" fill="#2474B7" stroke="#2474B7" stroke-width="0.529883"/>
<path d="M17.5488 46.4295H24.7744V48.4939H17.5488V46.4295Z" fill="#2474B7" stroke="#2474B7" stroke-width="0.529883"/>
<path d="M26.8379 46.4295H30.9667V48.4939H26.8379V46.4295Z" fill="#2474B7" stroke="#2474B7" stroke-width="0.529883"/>
<path d="M48.5173 62.9459C57.0692 62.9459 64.0008 56.0129 64.0008 47.4618C64.0008 38.9099 57.0692 31.9777 48.5173 31.9777C39.9654 31.9777 33.0332 38.9099 33.0332 47.4618C33.0433 56.009 39.9696 62.9355 48.5173 62.9459ZM48.5173 34.0424C55.9281 34.0424 61.9367 40.0504 61.9367 47.4618C61.9367 54.8732 55.9281 60.881 48.5173 60.881C41.1056 60.881 35.0974 54.8732 35.0974 47.4618C35.1062 40.054 41.109 34.0507 48.5173 34.0424Z" fill="#2474B7" stroke="#2474B7" stroke-width="0.529883"/>
<path d="M42.219 48.0324L40.3711 48.955L42.4358 53.0841C42.5838 53.3812 42.8663 53.5889 43.1941 53.642C43.2474 53.6502 43.3007 53.6546 43.3543 53.6554C43.6278 53.6554 43.8904 53.5465 44.0844 53.3529L56.471 40.9659L55.0117 39.5061L43.6368 50.8805L42.219 48.0324Z" fill="#2474B7" stroke="#2474B7" stroke-width="0.529883"/>
</g>
<defs>
<clipPath id="clip0">
<rect width="64" height="64" fill="white"/>
</clipPath>
</defs>
</svg>

<svg width="64" height="64" fill="none" xmlns="http://www.w3.org/2000/svg"><g clip-path="url(#clip0)" fill="#2474B7" stroke="#2474B7" stroke-width=".53"><path d="M5.161 56.752H32v-2.065H5.161a3.097 3.097 0 01-3.097-3.096V6.17a3.097 3.097 0 013.097-3.096h45.42a3.096 3.096 0 013.096 3.096v23.742h2.065V6.171a5.167 5.167 0 00-5.161-5.16H5.16A5.168 5.168 0 000 6.17v45.42a5.168 5.168 0 005.161 5.161z"/><path d="M4.129 5.14h2.064v2.064H4.13V5.139zm4.129 0h2.065v2.064H8.258V5.139zm4.129 0h2.064v2.064h-2.064V5.139zM4.129 9.268h47.483v2.065H4.13V9.268zM14.756 13.7l-2.622 2.622a5.177 5.177 0 101.46 1.46l2.62-2.623-1.458-1.46zM9.29 23.72a3.097 3.097 0 010-6.194c.461.002.914.108 1.327.31l-2.056 2.056 1.46 1.46 2.057-2.055c.202.413.308.866.31 1.326a3.096 3.096 0 01-3.098 3.096zm8.259-6.194h17.548v2.065H17.549v-2.065zm0 4.129h7.225v2.064H17.55v-2.064zm9.289 0h14.451v2.064H26.838v-2.064zm10.324-4.129h10.323v2.065H37.162v-2.065zm-22.406 8.561l-2.622 2.622a5.177 5.177 0 101.46 1.46l2.62-2.623-1.458-1.46zM9.29 36.107a3.097 3.097 0 010-6.194c.461.002.914.108 1.327.31L8.562 32.28l1.46 1.459 2.057-2.055c.202.413.308.866.31 1.326a3.097 3.097 0 01-3.098 3.097zm8.259-6.194h17.548v2.065H17.549v-2.065zm0 4.129h7.225v2.065H17.55v-2.065zm9.289 0h8.258v2.065h-8.258v-2.065zm10.324-4.129h4.129v2.065h-4.129v-2.065zm-22.406 8.561l-2.622 2.622a5.177 5.177 0 101.46 1.46l2.62-2.622-1.458-1.46zM9.29 48.494a3.097 3.097 0 010-6.194c.461.002.914.108 1.327.31l-2.056 2.057 1.46 1.459 2.057-2.055c.202.413.308.866.31 1.326a3.097 3.097 0 01-3.098 3.097zm8.259-6.194h13.419v2.065h-13.42V42.3zm0 4.13h7.225v2.064H17.55v-2.065zm9.289 0h4.129v2.064h-4.13v-2.065zm21.679 16.516c8.552 0 15.484-6.933 15.484-15.484 0-8.552-6.932-15.484-15.484-15.484S33.033 38.91 33.033 47.462c.01 8.547 6.937 15.473 15.484 15.484zm0-28.904c7.411 0 13.42 6.008 13.42 13.42 0 7.411-6.009 13.419-13.42 13.419s-13.42-6.008-13.42-13.42c.01-7.407 6.012-13.41 13.42-13.419z"/><path d="M42.219 48.032l-1.848.923 2.065 4.13a1.032 1.032 0 00.918.57c.274 0 .536-.108.73-.302l12.387-12.387-1.46-1.46L43.638 50.88l-1.418-2.848z"/></g><defs><clipPath id="clip0"><path fill="#fff" d="M0 0h64v64H0z"/></clipPath></defs></svg>
